packages/ui-icons/svg/Solid/textarea.svg

<svg viewBox="0 0 1920 1920" xmlns="http://www.w3.org/2000/svg">
    <path d="M1920 60v1440H600c-165.36 0-300 134.64-300 300v60H0V60h1920Zm-720 840H480v120h720V900Zm240-360H480v120h960V540Z" fill-rule="evenodd"/>
</svg>

<svg viewBox="0 0 1920 1920" version="1.1" xmlns="http://www.w3.org/2000/svg">
    <path d="M1920,60 L1920,1500 L600,1500 C434.64,1500 300,1634.64 300,1800 L300,1800 L300,1860 L0,1860 L0,60 L1920,60 Z M1200,900 L480,900 L480,1020 L1200,1020 L1200,900 Z M1440,540 L480,540 L480,660 L1440,660 L1440,540 Z" stroke="none" stroke-width="1" fill-rule="evenodd"/>
</svg>
